build/img/icons/trophy.svg

<svg width="24" height="24" viewBox="0 0 24 24" fill="none" xmlns="http://www.w3.org/2000/svg">
<g filter="url(#filter0_di)">
<path fill-rule="evenodd" clip-rule="evenodd" d="M13 15.9C15.2822 15.4367 17 13.419 17 11V4H7V11C7 13.419 8.71776 15.4367 11 15.9V18H9V20H15V18H13V15.9ZM9 6H15V11C15 12.6569 13.6569 14 12 14C10.3431 14 9 12.6569 9 11V6Z" fill="#FFB443"/>
<path d="M18 6H20V11H18V6Z" fill="#FFB443"/>
<path d="M6 6H4V11H6V6Z" fill="#FFB443"/>
</g>
<defs>
<filter id="filter0_di" x="0" y="0" width="24" height="25" filterUnits="userSpaceOnUse" color-interpolation-filters="sRGB">
<feFlood flood-opacity="0" result="BackgroundImageFix"/>
<feColorMatrix in="SourceAlpha" type="matrix" values="0 0 0 0 0 0 0 0 0 0 0 0 0 0 0 0 0 0 127 0" result="hardAlpha"/>
<feOffset dy="1"/>
<feColorMatrix type="matrix" values="0 0 0 0 0.72549 0 0 0 0 0.34902 0 0 0 0 0.215686 0 0 0 1 0"/>
<feBlend mode="normal" in2="BackgroundImageFix" result="effect1_dropShadow"/>
<feBlend mode="normal" in="SourceGraphic" in2="effect1_dropShadow" result="shape"/>
<feColorMatrix in="SourceAlpha" type="matrix" values="0 0 0 0 0 0 0 0 0 0 0 0 0 0 0 0 0 0 127 0" result="hardAlpha"/>
<feMorphology radius="5" operator="erode" in="SourceAlpha" result="effect2_innerShadow"/>
<feOffset/>
<feGaussianBlur stdDeviation="10"/>
<feComposite in2="hardAlpha" operator="arithmetic" k2="-1" k3="1"/>
<feColorMatrix type="matrix" values="0 0 0 0 1 0 0 0 0 1 0 0 0 0 1 0 0 0 0.15 0"/>
<feBlend mode="normal" in2="shape" result="effect2_innerShadow"/>
</filter>
</defs>
</svg>

<svg width="24" height="24" viewBox="0 0 24 24" fill="none" xmlns="http://www.w3.org/2000/svg">
    <g filter="url(#a)" fill="#FFB443">
        <path fill-rule="evenodd" clip-rule="evenodd" d="M13 15.9a5.002 5.002 0 0 0 4-4.9V4H7v7a5.002 5.002 0 0 0 4 4.9V18H9v2h6v-2h-2v-2.1zM9 6h6v5a3 3 0 1 1-6 0V6z"/>
        <path d="M18 6h2v5h-2V6zM6 6H4v5h2V6z"/>
    </g>
    <defs>
        <filter id="a" x="0" y="0" width="24" height="25" filterUnits="userSpaceOnUse" color-interpolation-filters="sRGB">
            <feFlood flood-opacity="0" result="BackgroundImageFix"/>
            <feColorMatrix in="SourceAlpha" values="0 0 0 0 0 0 0 0 0 0 0 0 0 0 0 0 0 0 127 0" result="hardAlpha"/>
            <feOffset dy="1"/>
            <feColorMatrix values="0 0 0 0 0.72549 0 0 0 0 0.34902 0 0 0 0 0.215686 0 0 0 1 0"/>
            <feBlend in2="BackgroundImageFix" result="effect1_dropShadow"/>
            <feBlend in="SourceGraphic" in2="effect1_dropShadow" result="shape"/>
            <feColorMatrix in="SourceAlpha" values="0 0 0 0 0 0 0 0 0 0 0 0 0 0 0 0 0 0 127 0" result="hardAlpha"/>
            <feMorphology radius="5" in="SourceAlpha" result="effect2_innerShadow"/>
            <feOffset/>
            <feGaussianBlur stdDeviation="10"/>
            <feComposite in2="hardAlpha" operator="arithmetic" k2="-1" k3="1"/>
            <feColorMatrix values="0 0 0 0 1 0 0 0 0 1 0 0 0 0 1 0 0 0 0.15 0"/>
            <feBlend in2="shape" result="effect2_innerShadow"/>
        </filter>
    </defs>
</svg>
